build/img/hit-icon.svg

<svg width="56" height="56" viewBox="0 0 56 56" fill="none" xmlns="http://www.w3.org/2000/svg">
<rect width="56" height="56" rx="28" fill="url(#paint0_linear)"/>
<rect width="56" height="56" rx="28" fill="#FFD43C"/>
<path d="M18.5721 32.8401L17.2859 37.1271L15.3926 37.6344L17.2147 31.8849L13.1267 28.0958L15.074 27.574L17.9424 30.3275L19.1038 26.4942L20.97 25.9942L19.3097 31.2655L23.7769 35.3878L21.8025 35.9168L18.5721 32.8401ZM29.0095 25.9561L28.7551 27.3867L27.0953 34.4987L24.9316 35.0784L22.3952 25.6123L24.0179 25.1775L26.0435 32.7369L26.3068 31.2314L27.9666 24.1195L30.1033 23.547L32.6397 33.013L31.0169 33.4478L29.0095 25.9561ZM31.2522 23.2391L38.6898 21.2462L39.0739 22.6796L36.1665 23.4587L38.3188 31.4913L36.6961 31.9261L34.5437 23.8935L31.6363 24.6725L31.2522 23.2391ZM43.4912 30.2358C43.1757 30.3204 42.8864 30.2867 42.6235 30.135C42.3672 29.9717 42.1992 29.7414 42.1195 29.4439C42.0398 29.1464 42.0713 28.8674 42.2141 28.6069C42.3635 28.3349 42.5959 28.1567 42.9115 28.0721C43.227 27.9876 43.5129 28.0269 43.7692 28.1902C44.0321 28.342 44.2035 28.5666 44.2832 28.8641C44.3629 29.1616 44.3281 29.4463 44.1787 29.7183C44.0359 29.9788 43.8067 30.1513 43.4912 30.2358ZM40.1108 20.8654L41.7335 20.4306L43.5453 27.1921L41.9225 27.6269L40.1108 20.8654Z" fill="black"/>
<defs>
<linearGradient id="paint0_linear" x1="0" y1="0" x2="125.182" y2="44.6122" gradientUnits="userSpaceOnUse">
<stop stop-color="#F529F8"/>
<stop offset="0.567708" stop-color="#2660D2"/>
<stop offset="1" stop-color="#00DBDE"/>
</linearGradient>
</defs>
</svg>

<svg width="56" height="56" viewBox="0 0 56 56" fill="none" xmlns="http://www.w3.org/2000/svg"><rect width="56" height="56" rx="28" fill="url(#paint0_linear)"/><rect width="56" height="56" rx="28" fill="#FFD43C"/><path d="M18.572 32.84l-1.286 4.287-1.893.507 1.822-5.75-4.088-3.788 1.947-.522 2.868 2.753 1.162-3.833 1.866-.5-1.66 5.271 4.467 4.123-1.975.529-3.23-3.077zm10.438-6.884l-.255 1.43-1.66 7.113-2.163.58-2.537-9.467 1.623-.434 2.026 7.559.263-1.506 1.66-7.112 2.136-.572 2.537 9.466-1.623.435-2.008-7.492zm2.242-2.717l7.438-1.993.384 1.434-2.907.779 2.152 8.032-1.623.435-2.152-8.032-2.908.779-.384-1.434zm12.24 6.997c-.316.084-.606.05-.868-.101a1.141 1.141 0 01-.505-.691 1.092 1.092 0 01.095-.837c.15-.272.382-.45.697-.535.316-.084.602-.045.858.118.263.152.434.377.514.674.08.298.045.582-.104.854-.143.26-.372.433-.688.518zm-3.381-9.37l1.623-.435 1.811 6.761-1.623.435-1.811-6.762z" fill="#000"/><defs><linearGradient id="paint0_linear" x1="0" y1="0" x2="125.182" y2="44.612" gradientUnits="userSpaceOnUse"><stop stop-color="#F529F8"/><stop offset=".568" stop-color="#2660D2"/><stop offset="1" stop-color="#00DBDE"/></linearGradient></defs></svg>
